!!!!SEGMENT: pl-cz--i-155--001-003_anonim--partita-b-adagio.krn
!!!cenid: 18xx:2496
!!!COM: Anonim
!!!COM-rism: pe30004985
!!!CDT:
!!!CNT:
!!!OTL: Partita B - Adagio
!!!PDT:
!!!AGN: Secular; Partita
!!!SMS-siglum: PL-CZ
!!!SMS-shelfmark: I-155
!!!NIFC-rismID: 1001012507
!!!URL-scan: http://repozytorium.nifc.pl/skany/pl-cz-nut--i-155
!!!ONB-nifc: UWAGA: Parthia I (001), części: 1. Adagio, 2. Menuetto, 3. Adagio, 4. Allegro presto. Uwaga: 5 partii
!!!SMS-variant:
!!!SMS-altvar:
**kern	**kern	**kern	**kern	**kern	**dynam
*part5	*part4	*part3	*part2	*part1	*part1
*staff5	*staff4	*staff3	*staff2	*staff1	*
*I"Corno Secondo	*I"Corno Primo.	*I"Fagotto	*I"Clarinetto Secondo	*I"Clainetto Primo	*
*I'cor II in B|b	*I'cor I in B|b	*I'fag	*I'cl II	*I'cl I	*
*clefG2	*clefG2	*clefF4	*clefG2	*clefG2	*
*ITrd1c2	*ITrd1c2	*	*ITrd1c2	*ITrd1c2	*
*k[b-e-]	*k[b-e-]	*k[b-e-]	*k[b-e-]	*k[b-e-]	*
*M2/4	*M2/4	*M2/4	*M2/4	*M2/4	*
*all\right	*all\right	*all\right	*all\right	*all\right	*
!LO:TX:a:t=Adagio	!LO:TX:a:t=Adagio	!LO:TX:a:t=Adagio	!LO:TX:a:t=Adagio	!LO:TX:a:t=Adagio	!
8r	8r	8r	(16b-\LL	(16dd\LL	p
.	.	.	16cc\JJ)	16ee-\JJ)	.
=1	=1	=1	=1	=1	=1
*	*2\right	*	*	*	*
!	!	!LO:TX:t=P:problem:mixed beam	!	!	!
.	.	.	8qee-/	8qgg/	.
2B-/	2b-\	8BB-/L	4.dd\	4.ff\	.
.	.	8B-\	.	.	.
.	.	8BB-/	.	.	.
.	.	8B-\J	16cc\LL	16ee-\LL	.
.	.	.	16b-\JJ	16dd\JJ	.
=2	=2	=2	=2	=2	=2
*	*	*2\right	*	*	*
*	*	*tremolo	*	*	*
!	!	!LO:TX:t=P:problem:mixed beam	!	!	!
2B-/	2b-\	8BB-/L	4.gg\	4.bb-\	.
.	.	8B-\	.	.	.
.	.	8BB-/	.	.	.
.	.	8B-\J	(16ff\LL	16aa\LL	.
.	.	.	16ee-\JJ)	16gg\JJ	.
*	*	*Xtremolo	*	*	*
=3	=3	=3	=3	=3	=3
!	!	!LO:TX:t=P:problem:mixed beam	!	!	!
.	.	.	8qqee-/	8qgg/	.
4B-/	4b-\	8BB-/L	8dd\L	8ff\L	.
.	.	8B-\	16cc\L	16ee-\L	.
.	.	.	16b-\JJ	16dd\JJ	.
.	.	.	8qb-/	8qdd/	.
4f/	4cc\	8FF/	8a\L	16cc'\LL	.
.	.	.	.	16cc'\	.
.	.	8F\J	16b-\L	(16dd\	.
.	.	.	16cc\JJ	16ee-\JJ)	.
=4	=4	=4	=4	=4	=4
!	!	!LO:TX:t=P:problem:mixed beam	!	!	!
4f/	4cc\	8BB-\L	4cc\	4ee-\	.
.	.	8B-\	.	.	.
8d/	8b-\	8BB-\J	8b-\L|	8dd\L	.
!	!	!	!	!	!LO:DY:t=fo&colon;
8r	8r	8r	(16b-\L	(16cc\L	f
.	.	.	16cc\JJ)	16dd\JJ)	.
!	!	!	!	!LO:LB:g=original	!
=5	=5	=5	=5	=5	=5
!	!	!LO:TX:t=P:problem:mixed beam	!	!	!
.	.	.	8qee-/	8qgg/	.
2B-/	2b-\	8BB-/L	4.dd\	4.ff\	.
.	.	8B-\	.	.	.
.	.	8BB-/	.	.	.
.	.	8B-\J	(16cc\LL	16ee-\LL	.
.	.	.	16b-\JJ)	16dd\JJ	.
!	!	!LO:LB:g=original	!LO:LB:g=original	!	!
=6	=6	=6	=6	=6	=6
*	*	*tremolo	*	*	*
!	!	!LO:TX:t=P:problem:mixed beam	!	!	!
2B-/	2b-\	8BB-/L	4.gg\	4.bb-\	.
.	.	8B-\	.	.	.
.	.	8BB-/	.	.	.
.	.	8B-\J	(16ff\LL	16aa\LL	.
.	.	.	16ee-\JJ)	16gg\JJ	.
*	*	*Xtremolo	*	*	*
=7	=7	=7	=7	=7	=7
.	.	.	8qee-/	8qqgg/	.
8B-/	8b-\	8BB-/	8dd\L	8ff\L	.
8r	8r	8r	16cc\L	16ee-\L	.
.	.	.	16b-\JJ	16dd\JJ	.
!LO:LB:g=original	!	!	!	!	!
.	.	.	8qf/	8qdd/	.
8f/	8cc\	8F\	8e-/L	8cc\L	.
8r	8r	8r	16d/L	16b-\L	.
.	.	.	16c/JJ	16a\JJ	.
!	!LO:LB:g=original	!	!	!	!
=8	=8	=8	=8	=8	=8
!	!	!LO:TX:t=P:problem:mixed beam	!	!	!
4f/	4cc\	8B-\L	4c/	4a\	.
.	.	8F\	.	.	.
!	!	!LO:TX:b:t=8	!	!	!
!LO:TX:b:t=fin	!LO:TX:b:t=fin	!LO:TX:b:t=finis	!LO:TX:b:t=fin	!LO:TX:b:t=8	!
8d;/	8b-;\	8BB-;/J	8d;/	8b-\	.
=:|!|:	=:|!|:	=:|!|:	=:|!|:	=:|!|:	=:|!|:
8r	8r	8r	8r	8f/	.
=9	=9	=9	=9	=9	=9
2F/	2f/	8r	8r	(16ee-\LL	.
.	.	.	.	16cc\)	.
.	.	8c\L	8e-/L	16a'\	.
.	.	.	.	16a'\JJ	.
.	.	8c\	8e-/	16a'\LL	.
.	.	.	.	16a'\	.
.	.	8c\J	8e-/J	16a'\	.
.	.	.	.	16a'\JJ	.
=10	=10	=10	=10	=10	=10
2F/	2f/	8r	8r	16ff\LL	.
.	.	.	.	16dd\JJ	.
.	.	8B-\L	8d/L	8b-\	.
.	.	8B-\J	8d/J	8r	.
!	!	!	!	!LO:LB:g=original	!
.	.	8r	8r	8f/	.
!	!	!	!LO:LB:g=original	!	!
=11	=11	=11	=11	=11	=11
2F/	2f/	8r	8r	16ee-\LL	.
.	.	.	.	16cc\	.
.	.	8c\L	8e-/L	16a\	.
.	.	.	.	16a\JJ	.
.	.	8c\	8e-/	16a\LL	.
.	.	.	.	16a\	.
.	.	8c\J	8e-/J	16a\	.
.	.	.	.	16a\JJ	.
!	!	!LO:LB:g=original	!	!	!
=12	=12	=12	=12	=12	=12
4F/	4f/	8r	8r	16ff\LL	.
.	.	.	.	16dd\JJ	.
.	.	8B-\L	8d/L	8b-\	.
4r	4r	8B-\J	8d/J	8r	.
.	.	8r	(16b-\LL	16dd\LL	.
.	.	.	16cc\JJ)	16ee-\JJ	.
=13	=13	=13	=13	=13	=13
*	*	*tremolo	*	*	*
!	!	!LO:TX:t=P:problem:mixed beam	!	!	!
.	.	.	8qee-/	8qqgg/	.
2B-/	2b-\	8BB-/L	4.dd\	4.ff\	.
.	.	8B-\	.	.	.
.	.	8BB-/	.	.	.
.	.	8B-\J	(16cc\LL	16ee-\LL	.
.	.	.	16b-\JJ)	16dd\JJ	.
=14	=14	=14	=14	=14	=14
2B-/	2b-\	8BB-/L	4.gg\	4.bb-\	.
.	.	8B-\	.	.	.
.	.	8BB-/	.	.	.
.	.	8B-\J	16ff\LL	16aa\LL	.
.	.	.	16ee-\JJ	16gg\JJ	.
*	*	*Xtremolo	*	*	*
=15	=15	=15	=15	=15	=15
.	.	.	8qee-/	.	.
8B-/	8b-\	8BB-/	8dd\L	16gg\LL	.
.	.	.	.	16ff\	.
8r	8r	8r	16cc\L	16ee-\	.
.	.	.	16b-\JJ	16dd\JJ	.
.	.	.	8qf/	8qdd/	.
8f/	8cc\	8F\	8e-/L	8cc\L	.
8r	8r	8r	16d/L	16b-\L	.
.	.	.	16c/JJ	16a\JJ	.
!LO:LB:g=original	!	!	!	!LO:LB:g=original	!
=16	=16	=16	=16	=16	=16
!	!	!LO:TX:t=P:problem:mixed beam	!	!	!
4f/	4cc\	8B-\L	4c/	4a\	.
.	.	8F\	.	.	.
!	!	!LO:TX:b:t=8	!	!LO:TX:b:t=8	!
8d/	8b-\	8BB-/J	8d/	8b-\	.
!	!LO:LB:g=original	!	!LO:TX:a:t=4	!	!
=:|!|:	=:|!|:	=:|!|:	=:|!|:	=:|!|:	=:|!|:
8r	8r	8r	8ryy	8ff\	.
=17	=17	=17	=17	=17	=17
*	*	*	*	*Xtuplet	*
!	!	!	!LO:N:vis=00	!	!
0r	4b-\	4d-X\	1.r	24dd-X'\LL	.
.	.	.	.	24ff'\	.
.	.	.	.	24ee-'\JJ	.
.	.	.	.	24dd-'\LL	.
.	.	.	.	24cc'\	.
.	.	.	.	24b-'\JJ	.
.	4f/	4c\	.	24a'\LL	.
.	.	.	.	24cc'\	.
.	.	.	.	24b-'\JJ	.
.	.	.	.	24a'\LL	.
.	.	.	.	24g'\	.
.	.	.	.	24f'\JJ	.
=18	=18	=18	=18	=18	=18
.	4b-\	4d\	.	24b-'\LL	.
.	.	.	.	24dd'\	.
.	.	.	.	24ff'\JJ	.
.	.	.	.	24ff'\LL	.
.	.	.	.	24ff'\	.
.	.	.	.	24ff'\JJ	.
.	4cc\	4e-\	.	24a\LL	.
.	.	.	.	24cc\	.
.	.	.	.	24ff\JJ	.
.	.	.	.	24ff\LL	.
.	.	.	.	24ff\	.
.	.	.	.	24ff\JJ	.
!	!	!	!	!LO:LB:g=original	!
=19	=19	=19	=19	=19	=19
.	4b-\	4d-X\	.	24dd-X\LL	.
.	.	.	.	24ff\	.
.	.	.	.	24ee-\JJ	.
.	.	.	.	24dd-\LL	.
.	.	.	.	24cc\	.
.	.	.	.	24b-\JJ	.
.	4f/	4c\	.	24a\LL	.
.	.	.	.	24cc\	.
.	.	.	.	24b-\JJ	.
.	.	.	.	24a\LL	.
.	.	.	.	24g\	.
.	.	.	.	24f\JJ	.
=20	=20	=20	=20	=20	=20
.	8b-/L	8d-X\L	4ryy	24b-\LL	.
.	.	.	.	24dd\	.
.	.	.	.	24ff\JJ	.
.	8f/	8c\	.	24a\LL	.
.	.	.	.	24cc\	.
.	.	.	.	24ff\JJ	.
.	8B-/J	8B-\J	8ryy	8b-\	.
!	!LO:TX:b:t=Da Capo il fine	!	!LO:TX:b:t=Da Capo il fino	!	!
.	8ryy	8ryy	(y16b-\LLyy	16dd\LL	.
.	.	.	16cc\JJ)yy	16ee-\JJ	.
=21	=21	=21	=21	=21	=21
!LO:TX:b:t=Da Capo il fine	!	!LO:TX:b:t=Da Capo il fine	!	!	!
!	!	!LO:TX:t=P:problem:mixed beam	!	!	!
.	.	.	8qee-/yy	8qqgg/	.
2B-/yy	2b-\yy	8BB-\Lyy	4.dd\yy	4.ff\	.
.	.	8B-\yy	.	.	.
.	.	8BB-\yy	.	.	.
.	.	8B-\Jyy	16cc\LLyy	16ee-\LL	.
.	.	.	16b-\JJyy	16dd\JJ	.
=22	=22	=22	=22	=22	=22
!	!	!LO:TX:t=P:problem:mixed beam	!	!	!
2B-/yy	2b-\yy	8BB-\Lyy	4.gg\yy	4.bb-\	.
.	.	8B-\yy	.	.	.
.	.	8BB-\yy	.	.	.
.	.	8B-\Jyy	(y16ff\LLyy	16aa\LL	.
.	.	.	16ee-\JJ)yy	16gg\JJ	.
!	!	!	!	!LO:LB:g=original	!
=23	=23	=23	=23	=23	=23
!	!	!LO:TX:t=P:problem:mixed beam	!	!	!
.	.	.	8qqee-/yy	8qqgg/	.
4B-/yy	4b-\yy	8BB-\Lyy	8dd\Lyy	8ff\L	.
.	.	8B-\yy	16cc\Lyy	16ee-\L	.
.	.	.	16b-\JJyy	16dd\JJ	.
.	.	.	8qb-/yy	.	.
4f/yy	4cc\yy	8FF\yy	8a\Lyy	16cc\LL	.
.	.	.	.	16cc\	.
.	.	8F\Jyy	16b-\Lyy	16dd\	.
.	.	.	16cc\JJyy	16ee-\JJ	.
=24	=24	=24	=24	=24	=24
!	!	!LO:TX:t=P:problem:mixed beam	!	!	!
4f/yy	4cc\yy	8BB-\Lyy	4cc\yy	4ee-\	.
.	.	8B-\yy	.	.	.
8d/yy	8b-\yy	8BB-\Jyy	8b-\L|yy	8dd\L	.
8ryy	8ryy	8ryy	(y16b-\Lyy	16dd\L	.
.	.	.	16cc\JJ)yy	16ee-\JJ	.
=25	=25	=25	=25	=25	=25
!	!	!LO:TX:t=P:problem:mixed beam	!	!	!
.	.	.	8qee-/yy	8qqgg/	.
2B-/yy	2b-\yy	8BB-\Lyy	4.dd\yy	4.ff\	.
.	.	8B-\yy	.	.	.
.	.	8BB-\yy	.	.	.
.	.	8B-\Jyy	(y16cc\LLyy	16ee-\LL	.
.	.	.	16b-\JJ)yy	16dd\JJ	.
=26	=26	=26	=26	=26	=26
!	!	!LO:TX:t=P:problem:mixed beam	!	!	!
2B-/yy	2b-\yy	8BB-\Lyy	4.gg\yy	4.bb-\	.
.	.	8B-\yy	.	.	.
.	.	8BB-\yy	.	.	.
.	.	8B-\Jyy	(y16ff\LLyy	16aa\LL	.
.	.	.	16ee-\JJ)yy	16gg\JJ	.
=27	=27	=27	=27	=27	=27
.	.	.	8qee-/yy	8qqgg/	.
8B-/yy	8b-\yy	8BB-/yy	8dd\Lyy	8ff\L	.
8ryy	8ryy	8ryy	16cc\Lyy	16ee-\L	.
.	.	.	16b-\JJyy	16dd\JJ	.
.	.	.	8qf/yy	8qqdd/	.
8f/yy	8cc\yy	8F\yy	8e-/Lyy	8cc\L	.
8ryy	8ryy	8ryy	16d/Lyy	16b-\L	.
.	.	.	16c/JJyy	16a\JJ	.
=28	=28	=28	=28	=28	=28
!	!	!LO:TX:t=P:problem:mixed beam	!	!	!
4f/yy	4cc\yy	8B-\Lyy	4c/yy	4a\	.
.	.	8F\yy	.	.	.
!LO:TX:b:t=fin	!	!LO:TX:b:t=finis	!	!LO:TX:b:t=12	!
8d;/yy	8b-;\yy	8BB-;\Jyy	8d;/yy	8b-\	.
=:|!	=:|!	=:|!	=:|!	=:|!	=:|!
*-	*-	*-	*-	*-	*-
!!!system-decoration: [(s1,s2,s3)][(s4,s5)]
!!!ENC: Krzysztof Stępień
!!!END: 2021-06-15
!!!RDF**kern: | = vertical stroke
!!!EED: Andrzej Borzym
!!!EST: 2021-06-19
